X:1
T:Alla Gossar
R:Menuett
O:Härrmanstorp, Ljungby församling, Halland.  
S:Menuett efter Anna Lovisa Johansson, August Bondesons visbok, nr 204/
M:3/4
L:1/8
K:D
|:D>F DD FA | AG EF D2 | D>F DD FA | G2 A4 :|
|: F>G FG AA | BG GA F2 | F>G FG AA | BG GA F2 |
F>E CE D2 | F>E CE D2 | D>F AA FG | E2 D4 :|

